azure-patterns/svg-data-warehouse-mono.svg

<svg xmlns="http://www.w3.org/2000/svg" viewBox="0 0 24 24"><path d="M4 16v1H3v-1h1m1-1H2v3h3v-3zm3 1v1H7v-1h1m1-1H6v3h3v-3zm-5-3v1H3v-1h1m1-1H2v3h3v-3zm3 1v1H7v-1h1m1-1H6v3h3v-3zM8 8v1H7V8h1m1-1H6v3h3V7zm9 1V5L9 0 0 5v13h1V5.588l8-4.444 8 4.444v2.449c-2.836.199-5 1.224-5 2.463V15h-2v3h2v3.5c0 1.381 2.687 2.5 6 2.5s6-1.119 6-2.5v-11C24 9.119 21.313 8 18 8zm-7 9v-1h1v1h-1zm12 4.5c0 .385-1.719 1.5-5 1.5s-5-1.115-5-1.5v-9.619c1.075.674 2.912 1.119 5 1.119s3.925-.445 5-1.119V21.5zM18 12c-3.281 0-5-1.115-5-1.5S14.719 9 18 9s5 1.115 5 1.5-1.719 1.5-5 1.5z"/></svg>

<svg xmlns="http://www.w3.org/2000/svg" viewBox="0 0 24 24">
                                
                            
  <path d="M4,16v1H3v-1H4 M5,15H2v3h3V15L5,15z M8,16v1H7v-1H8 M9,15H6v3h3V15L9,15z M4,12v1H3v-1H4 M5,11H2v3h3V11 L5,11z M8,12v1H7v-1H8 M9,11H6v3h3V11L9,11z M8,8v1H7V8H8 M9,7H6v3h3V7L9,7z M18,8V5L9,0L0,5v13h1V5.588l8-4.444l8,4.444v2.449 c-2.836,0.199-5,1.224-5,2.463V15h-2v3h2v3.5c0,1.381,2.687,2.5,6,2.5s6-1.119,6-2.5v-11C24,9.119,21.313,8,18,8z M11,17v-1h1v1H11z M23,21.5c0,0.385-1.719,1.5-5,1.5s-5-1.115-5-1.5V18v-3v-3.119C14.075,12.555,15.912,13,18,13s3.925-0.445,5-1.119V21.5z M18,12 c-3.281,0-5-1.115-5-1.5S14.719,9,18,9s5,1.115,5,1.5S21.281,12,18,12z"></path>
</svg>
